!!!COM: Palestrina, Giovanni Perluigi da
!!!OPR: Alma Redemptoris mater
!!!OTL: Credo
**kern	**kern	**kern	**kern	**kern	**kern
*Ibass	*Ibass	*Itenor	*Icalto	*Icalto	*Icant
!Bassus 2	!Bassus 1	!Tenor	!Altus 2	!Altus 1	!Cantus
*clefF4	*clefF4	*clefGv2	*clefG2	*clefG2	*clefG2
*k[b-]	*k[b-]	*k[b-]	*k[b-]	*k[b-]	*k[b-]
*F:ion	*F:ion	*F:ion	*F:ion	*F:ion	*F:ion
*M4/2	*M4/2	*M4/2	*M4/2	*M4/2	*M4/2
=1	=1	=1	=1	=1	=1
0r	0r	0r	1f	1r	1r
.	.	.	2.a	2r	1f
.	.	.	.	2f	.
.	.	.	4b-	.	.
=2	=2	=2	=2	=2	=2
0r	0r	0r	2cc	2f	2.a
.	.	.	2f	2d	.
.	.	.	.	.	4b-
.	.	.	2g	2e	1cc
.	.	.	2a	2f	.
=3	=3	=3	=3	=3	=3
0r	0r	0r	2.f	4B-	2dd
.	.	.	.	4c	.
.	.	.	.	4d	1ff
.	.	.	4e	4e	.
.	.	.	2d	4f	.
.	.	.	.	4g	.
.	.	.	2c	[2a	2ee
=4	=4	=4	=4	=4	=4
1r	0r	0r	1B-	2a]	1dd
.	.	.	.	2g	.
1F	.	.	1A	[1a	[1cc
=5	=5	=5	=5	=5	=5
2.A	2r	1F	2r	1a]	1cc]
.	2F	.	2a	.	.
4B-	.	.	.	.	.
2c	2F	2.A	2a	1r	1r
2F	2D	.	2a	.	.
.	.	4B-	.	.	.
=6	=6	=6	=6	=6	=6
2G	2E	1c	2g	0r	0r
2A	2F	.	1f	.	.
2B-	4BB-	2d	.	.	.
.	4C	.	.	.	.
4F	4D	2f	2d	.	.
4G	4E	.	.	.	.
=7	=7	=7	=7	=7	=7
4A	4F	2f	2.c	1r	1cc
4B-	4G	.	.	.	.
1c	2A	2e	.	.	.
.	.	.	4B-	.	.
.	2F	1d	2A	2r	1dd
2B	2G	.	2G	[2g	.
=8	=8	=8	=8	=8	=8
1c	0C	1c	2r	2g]	0ee
.	.	.	1g	2g	.
2r	.	1r	.	2.c	.
[2c	.	.	2g	.	.
.	.	.	.	4d	.
=9	=9	=9	=9	=9	=9
2c]	0r	1r	2c	1e	2r
2c	.	.	2g	.	1cc
2.F	.	2r	1a	2.f	.
.	.	[2f	.	.	2cc
4G	.	.	.	8e	.
.	.	.	.	8d	.
=10	=10	=10	=10	=10	=10
2A	0r	2f]	2cc	2c	1f
1B-	.	2f	4b-	1d	.
.	.	.	4a	.	.
.	.	2B-	2g	.	2g
2A	.	2c	2f	2c	2a
=11	=11	=11	=11	=11	=11
1G	0r	2d	1g	4B-	1.b-
.	.	.	.	4G	.
.	.	1e-	.	1g	.
1r	.	.	2r	.	.
.	.	2f	[2cc	[2f	2a
=12	=12	=12	=12	=12	=12
0r	2r	1c	2cc]	2f]	1g
.	1c	.	2cc	4e	.
.	.	.	.	4d	.
.	.	1r	2g	1e	2r
.	2c	.	2g	.	[2cc
=13	=13	=13	=13	=13	=13
0r	2.F	0r	1.a	2r	2cc]
.	.	.	.	1f	2cc
.	4G	.	.	.	.
.	2A	.	.	.	2cc
.	2B-	.	2d	2f	[2dd
=14	=14	=14	=14	=14	=14
1r	2B-	0r	1f	2B-	2dd]
.	2A	.	.	2c	1cc
2r	1G	.	1g	[1d	.
[2G	.	.	.	.	4b
.	.	.	.	.	4a
=15	=15	=15	=15	=15	=15
2G]	0r	1r	2r	2d]	4b
.	.	.	.	.	4cc
2G	.	.	1g	2d	4dd
.	.	.	.	.	4b
2.C	.	2r	.	2c	2cc
.	.	[2c	2e	2g	2cc
4D	.	.	.	.	.
=16	=16	=16	=16	=16	=16
2E	0r	2c]	2g	2e	[0cc
2F	.	2c	2f	2a	.
2F	.	2F	[1c	2a	.
2E	.	2G	.	[2g	.
=17	=17	=17	=17	=17	=17
2.F	0r	2.A	1c]	4g]	0cc]
.	.	.	.	4f	.
.	.	.	.	1f	.
8E	.	8G	.	.	.
8D	.	8F	.	.	.
1C	.	2G	1c	.	.
.	.	2G	.	2e	.
=18	=18	=18	=18	=18	=18
1F	2r	1F	2A	1f	2r
.	1F	.	1a	.	1cc
1r	.	1r	.	1f	.
.	2D	.	2b-	.	2dd
=19	=19	=19	=19	=19	=19
0r	2C	0r	2cc	2g	2ee
.	2BB-	.	2f	2.b-	2ff
.	1B-	.	2f	.	2.dd
.	.	.	.	4a	.
.	.	.	2g	[2g	.
.	.	.	.	.	4dd
=20	=20	=20	=20	=20	=20
0r	1A	1c	1a	2g]	1cc
.	.	.	.	2f	.
.	1G	1d	1r	2g	2b
.	.	.	.	2g	2b
=21	=21	=21	=21	=21	=21
2r	0r	2.e	1.g	1c	1cc
1c	.	.	.	.	.
.	.	4d	.	.	.
.	.	2e	.	2r	1cc
2A	.	2f	2a	2c	.
=22	=22	=22	=22	=22	=22
1G	0r	0g	1b	1d	0r
1C	.	.	1cc	1e	.
=23	=23	=23	=23	=23	=23
1F	2r	1c	2a	2f	2r
.	2F	.	2a	1f	2cc
1r	2D	2r	2b-	.	2dd
.	2C	[2c	[2cc	2g	2ee
=24	=24	=24	=24	=24	=24
0r	2F	2c]	2cc]	1a	1ff
.	2D	2d	2f	.	.
.	2C	2e	2g	2cc	2ee
.	2D	[2f	4f	2a	[2dd
.	.	.	4e	.	.
=25	=25	=25	=25	=25	=25
2r	2BB-	2f]	2d	2b-	2dd]
1G	2C	2e	2e	2.g	2cc
.	[1G	2d	1g	.	2b
.	.	.	.	4f	.
2C	.	2c	.	2e	2cc
=26	=26	=26	=26	=26	=26
2G	1G]	2B	1.g	2d	2dd
2C	.	2c	.	2e	1cc
1G	1r	2d	.	1d	.
.	.	[2g	2d	.	2b
=27	=27	=27	=27	=27	=27
1C	1c	2g]	2e	2r	1cc
.	.	1c	2g	2e	.
1r	1A	.	1a	1f	1r
.	.	[2d	.	.	.
=28	=28	=28	=28	=28	=28
0r	2G	4d]	2b-	2B-	2r
.	.	4e	.	.	.
.	2A	1f	1a	2c	2cc
.	1B-	.	.	1d	2f
.	.	4e	[2g	.	2g
.	.	4d	.	.	.
=29	=29	=29	=29	=29	=29
0r	2.A	2e	2g]	1c	1a
.	.	2f	1f	.	.
.	8G	.	.	.	.
.	8F	.	.	.	.
.	1G	1B-	.	1r	1b-
.	.	.	2e	.	.
=30	=30	=30	=30	=30	=30
1r	0F	1c	1f	2r	0a
.	.	.	.	1cc	.
2r	.	1f	1r	.	.
[2c	.	.	.	2f	.
=31	=31	=31	=31	=31	=31
2c]	0r	2e	2r	2g	0r
2F	.	1d	2f	2a	.
2G	.	.	1e	2b-	.
2A	.	2c	.	[2a	.
=32	=32	=32	=32	=32	=32
1B-	0r	2f	1d	2a]	0r
.	.	4e	.	2g	.
.	.	4d	.	.	.
2A	.	2e	2c	[1a	.
2D	.	[2d	2f	.	.
=33	=33	=33	=33	=33	=33
1A	1r	2d]	2e	0a]	1r
.	.	2c#	2e	.	.
1r	1D	1d	2d	.	1ff
.	.	.	2a	.	.
=34	=34	=34	=34	=34	=34
0r	2C#	1r	2a	2r	2ee
.	2D	.	2f	2a	2.ff
.	4D	1f	2d	2a	.
.	4E	.	.	.	4ee
.	4F	.	2d	2a	[2dd
.	4G	.	.	.	.
=35	=35	=35	=35	=35	=35
0r	2A	2e	1r	1a	4dd]
.	.	.	.	.	4cc
.	2F	2f	.	.	1cc
.	1G	1d	2r	1g	.
.	.	.	2g	.	2b
=36	=36	=36	=36	=36	=36
1A	0r	2c	2e	2r	1cc
.	.	2c	2f	2cc	.
2G	.	2d	2g	2b	1r
2A	.	2c	2e	2cc	.
=37	=37	=37	=37	=37	=37
2F	1r	2.c	1f	2a	0cc
2F	.	.	.	2a	.
.	.	4d	.	.	.
1c	2r	4e	1r	2g	.
.	.	4d	.	.	.
.	2A	4e	.	2c	.
.	.	4f	.	.	.
=38	=38	=38	=38	=38	=38
0r	2G	2g	0r	2d	2b
.	2A	4f	.	2c	2cc
.	.	4e	.	.	.
.	2F	2f	.	2cc	2a
.	2F	2f	.	2cc	2a
=39	=39	=39	=39	=39	=39
2r	1c	2e	2r	2cc	1g
2C	.	2e	2cc	1g	.
1G	1r	1d	1b	.	1r
.	.	.	.	2g	.
=40	=40	=40	=40	=40	=40
1A	1r	1c	2.cc	1e	1r
.	.	.	4b-	.	.
1F	2r	2c	1a	2f	2r
.	2F	4c	.	2cc	2ff
.	.	4d	.	.	.
=41	=41	=41	=41	=41	=41
1r	1c	4e	1g	2.cc	1ee
.	.	4f	.	.	.
.	.	2g	.	.	.
.	.	.	.	4b-	.
2r	2.d	4f	2r	1a	2.ff
.	.	4g	.	.	.
2D	.	4a	2d	.	.
.	4c	4f	.	.	4ee
=42	=42	=42	=42	=42	=42
2G	2B-	2g	2d	2b-	2dd
2C	2c	2e	2e	2.g	1cc
1G	1G	1d	1g	.	.
.	.	.	.	4f	.
.	.	.	.	2d	2b
=43	=43	=43	=43	=43	=43
1C	2r	2c	1g	2e	1cc
.	1c	1e	.	1g	.
1r	.	.	2.cc	.	1r
.	2F	2f	.	2a	.
.	.	.	4cc	.	.
=44	=44	=44	=44	=44	=44
0r	2c	2e	2cc	2g	0r
.	2d	2.d	2.b-	2f	.
.	1A	.	.	1e	.
.	.	8c	4a	.	.
.	.	8B-	.	.	.
.	.	2c	[2a	.	.
=45	=45	=45	=45	=45	=45
1r	1B-	2d	2a]	1d	1r
.	.	2G	2g	.	.
2r	1A	1r	1a	2e	[1cc
[2F	.	.	.	[2a	.
=46	=46	=46	=46	=46	=46
2F]	0r	0r	2.f	2a]	2cc]
2BB-	.	.	.	2b-	2dd
.	.	.	4f	.	.
2F	.	.	2f	2a	2cc
2G	.	.	2d	2g	2b-
=47	=47	=47	=47	=47	=47
2D	0r	0r	2d	2f	2a
2F	.	.	2c	2f	2a
1C	.	.	1c	1e	1g
=48	=48	=48	=48	=48	=48
1F	2r	2r	2c	0f	2a
.	1F	1c	1a	.	1ff
1r	.	.	.	.	.
.	2BB-	2d	2b-	.	2ff
=49	=49	=49	=49	=49	=49
0r	2F	2c	2a	2r	2ff
.	2G	2B-	2g	2g	2dd
.	1D	1A	2f	2a	1dd
.	.	.	[2a	[2f	.
=50	=50	=50	=50	=50	=50
0r	1F	1A	4a]	4f]	1cc
.	.	.	4g	4e	.
.	.	.	1f	2f	.
.	1C	1G	.	2g	1cc
.	.	.	2e	2c	.
=51	=51	=51	=51	=51	=51
0r	2F	0A	2f	2c	2a
.	2F	.	2a	2f	2cc
.	2F	.	2a	1f	2cc
.	2F	.	2a	.	2cc
=52	=52	=52	=52	=52	=52
0r	1D	0r	1f	2a	1dd
.	.	.	.	2b-	.
.	2C	.	2g	2cc	2ee-
.	2C	.	2a	2cc	2ee-
=53	=53	=53	=53	=53	=53
2r	0BB-	2r	2b-	2f	0dd
2B-	.	2d	2f	2b-	.
2B-	.	2f	2d	2b-	.
2B-	.	2f	2d	2b-	.
=54	=54	=54	=54	=54	=54
1G	0r	1g	1d	1b-	0r
2F	.	2c	2f	2a	.
2F	.	2d	2f	2a	.
=55	=55	=55	=55	=55	=55
1E-	0r	1e-	1b-	1g	1r
2BB-	.	1d	2b-	2f	1dd
2B-	.	.	2b-	2f	.
=56	=56	=56	=56	=56	=56
1F	1r	1r	1a	1f	1cc
2BB-	1B-	1d	2b-	[1f	2b-
[2B-	.	.	2b-	.	2dd
=57	=57	=57	=57	=57	=57
4B-]	1F	1c	2cc	2f]	2.ff
8A	.	.	.	.	.
8G	.	.	.	.	.
2A	.	.	2f	2c	.
.	.	.	.	.	4ee-
1B-	2BB-	2B-	1f	2d	2.dd
.	[2B-	2d	.	2B-	.
.	.	.	.	.	4cc
=58	=58	=58	=58	=58	=58
1F	4B-]	2.f	2r	2r	2dd
.	8A	.	.	.	.
.	8G	.	.	.	.
.	2A	.	2a	2c	2.cc
.	.	4e-	.	.	.
1BB-	1B-	1d	2f	2d	.
.	.	.	.	.	4b-
.	.	.	2d	[2f	2b-
=59	=59	=59	=59	=59	=59
2r	0F	2c	1f	2f]	2a
2BB-	.	2B-	.	2d	1b-
1F	.	1c	1f	1c	.
.	.	.	.	.	2a
=60	=60	=60	=60	=60	=60
0BB-	1r	1B-	1f	1d	1b-
.	1B-	1f	1r	1b-	1dd
=61	=61	=61	=61	=61	=61
0r	1B-	1f	0r	1b-	1dd
.	1F	1f	.	1a	1cc
=62	=62	=62	=62	=62	=62
0r	1G	1d	0r	1g	1b
.	1c	1e	.	1g	1cc
=63	=63	=63	=63	=63	=63
1r	0F	1f	1r	1a	1cc
1F	.	1c	1f	1a	1r
=64	=64	=64	=64	=64	=64
1F	0r	1c	1f	1a	0r
1C	.	1c	1e	1g	.
=65	=65	=65	=65	=65	=65
1D	0r	1A	1d	1f#	0r
1G	.	1B	1d	1g	.
=66	=66	=66	=66	=66	=66
[0C	2r	1c	2e	2g	2r
.	1c	.	1g	1cc	1ee
.	.	1r	.	.	.
.	2c	.	2g	2cc	2ee
=67	=67	=67	=67	=67	=67
1C]	1c	0r	1g	1cc	1ee
1r	1F	.	1cc	1a	1ff
=68	=68	=68	=68	=68	=68
0r	1A	0r	1cc	1a	1ee
.	1B-	.	1b-	1f	1dd
=69	=69	=69	=69	=69	=69
1r	0F	1r	1a	1f	1cc
1F	.	1A	1cc	1a	1ff
=70	=70	=70	=70	=70	=70
1F	1r	1A	1cc	1f	1ff
1BB-	1B-	2B-	1b-	1f	[1dd
.	.	[2d	.	.	.
=71	=71	=71	=71	=71	=71
1D	1F	2d]	0a	1f	1dd]
.	.	4c	.	.	.
.	.	4B-	.	.	.
1F	1A	2A	.	[1f	[1cc
.	.	2F	.	.	.
=72	=72	=72	=72	=72	=72
0C	1c	0G	0g	2f]	1cc]
.	.	.	.	4e	.
.	.	.	.	4d	.
.	1c	.	.	1e	1cc
=73	=73	=73	=73	=73	=73
[0F	1.A	[0F	[0a	[0f	[0cc
.	2F	.	.	.	.
=74	=74	=74	=74	=74	=74
0F]	0F	0F]	0a]	0f]	0cc]
*	*	*	*	*-	*-
!! Crucifixus
*Ibass	*Itenor	*Icalto	*Icant
!Bassus	!Tenor	!Altus	!Cantus
*clefF4	*clefGv2	*clefG2	*clefG2
*k[b-]	*k[b-]	*k[b-]	*k[b-]
*F:ion	*F:ion	*F:ion	*F:ion
*M4/2	*M4/2	*M4/2	*M4/2
=75	=75	=75	=75
0F	0f	0a	1r
.	.	.	[1cc
=76	=76	=76	=76
1C	1e	0g	1cc]
1G	1d	.	1b-
=77	=77	=77	=77
2.A	2c	1cc	1a
.	1f	.	.
4B-	.	.	.
1c	.	2.cc	2g
.	2e	.	[2cc
.	.	4b-	.
=78	=78	=78	=78
0r	2f	2a	2cc]
.	2g	2g	2b-
.	[1f	1a	2cc
.	.	.	2dd
=79	=79	=79	=79
0r	2f]	1r	1.cc
.	2e	.	.
.	1d	[1f	.
.	.	.	2b-
=80	=80	=80	=80
2r	1c	2f]	2a
1c	.	4e	4g
.	.	4d	4f
.	1r	4e	1g
.	.	4f	.
2B-	.	[2g	.
=81	=81	=81	=81
2c	1r	2g]	2.a
2d	.	2f	.
.	.	.	4b-
2c	2r	2e	4a
.	.	.	4g
2B-	2d	[2d	[2g
=82	=82	=82	=82
1A	2e	4d]	2g]
.	.	4c	.
.	4d	1c	2f
.	4c	.	.
1G	1d	.	[1g
.	.	2B	.
=83	=83	=83	=83
2r	[0e	1c	0g]
2c	.	.	.
2.c	.	2r	.
.	.	2cc	.
4B-	.	.	.
=84	=84	=84	=84
2.A	1e]	2.cc	2r
.	.	.	2cc
4G	.	4b-	.
1F	2r	2.a	2.cc
.	2c	.	.
.	.	4g	4b-
=85	=85	=85	=85
2F	2.c	2f	2a
2E	.	2c	2g
.	4B-	.	.
2F	2A	1c	2f
2E	2G	.	[2g
=86	=86	=86	=86
2D	2A	2d	4g]
.	.	.	4f
2D	4G	2B-	1f
.	4F	.	.
1C	1G	[1c	.
.	.	.	2e
=87	=87	=87	=87
1F	1A	1c]	1f
[1BB-	[1B-	[1f	[1dd
=88	=88	=88	=88
1BB-]	1B-]	1f]	1dd]
1F	1A	2.f	1cc
.	.	4e	.
=89	=89	=89	=89
1G	2r	2d	1b-
.	1d	2g	.
1A	.	2e	1a
.	2c	[2f	.
=90	=90	=90	=90
2B-	2d	2f]	1g
2c	2e	2e	.
1F	2f	2d	1a
.	2e	[2c	.
=91	=91	=91	=91
1G	1d	2c]	1.g
.	.	2B	.
1C	1e	1c	.
.	.	.	2cc
=92	=92	=92	=92
0r	0r	1g	2dd
.	.	.	2ee
.	.	2a	1ff
.	.	2b-	.
=93	=93	=93	=93
0r	0r	2cc	2ee
.	.	2a	2.ff
.	.	2.b-	.
.	.	.	4ff
.	.	.	2dd
.	.	4b-	.
=94	=94	=94	=94
0r	1r	2a	4ff
.	.	.	4ee
.	.	2.b-	4dd
.	.	.	4cc
.	2r	.	4dd
.	.	4a	4cc
.	2c	[2a	4cc
.	.	.	8b-
.	.	.	8a
=95	=95	=95	=95
1r	2d	2a]	1b-
.	2e	2g	.
2r	1f	1a	1a
2F	.	.	.
=96	=96	=96	=96
2G	2e	0r	0r
2A	2.f	.	.
1B-	.	.	.
.	4f	.	.
.	2d	.	.
=97	=97	=97	=97
2A	4f	0r	0r
.	4e	.	.
2.B-	4d	.	.
.	4c	.	.
.	4d	.	.
4B-	4e	.	.
2A	[2f	.	.
=98	=98	=98	=98
1G	2f]	2r	1r
.	2e	2g	.
1F	1f	1a	2r
.	.	.	2cc
=99	=99	=99	=99
0r	0r	2f	2dd
.	.	2g	2b-
.	.	4a	2cc
.	.	4g	.
.	.	4f	[2dd
.	.	4e	.
=100	=100	=100	=100
0r	2r	2d	2dd]
.	2c	2.g	4cc
.	.	.	4b-
.	2d	.	2a
.	.	4f	.
.	2B-	[2f	2b-
=101	=101	=101	=101
2r	2.c	2f]	1g
2C	.	2e	.
.	4B-	.	.
2D	2A	2f	[1f
2BB-	[2B-	[2d	.
=102	=102	=102	=102
1D	4B-]	4d]	0f]
.	4A	4c	.
.	2d	1B-	.
1F	2c	.	.
.	[2f	2A	.
=103	=103	=103	=103
2BB-	2f]	1B-	0r
2B-	2d	.	.
2G	2e	2r	.
2A	2f	2f	.
=104	=104	=104	=104
2B-	2g	2d	2r
2c	2.a	2e	2cc
1d	.	1f	2a
.	4g	.	.
.	[2f	.	2b-
=105	=105	=105	=105
1c	2f]	1g	2cc
.	2e	.	2cc
1r	2f	2a	1dd
.	2g	2b	.
=106	=106	=106	=106
2r	2c	2cc	1ee
2c	2e	2g	.
2c	2e	2g	1r
2c	2e	2g	.
=107	=107	=107	=107
2.c	2.e	2a	0r
.	.	2g	.
4B-	4d	.	.
2c	2e	2a	.
[2d	[2f	[2b-	.
=108	=108	=108	=108
2d]	2f]	4b-]	0r
.	.	4a	.
2c	2e	1a	.
1B-	1d	.	.
.	.	2g	.
=109	=109	=109	=109
2A	2e	2a	1cc
2F	2f	2a	.
2F	2f	2a	2cc
2E	2g	2g	2cc
=110	=110	=110	=110
2.F	2.a	2.f	2.cc
4G	4g	4d	4b-
2A	[1f	2c	2cc
[2B-	.	4B-	[2dd
.	.	4c	.
=111	=111	=111	=111
2B-]	1f]	4d	2dd]
.	.	4e	.
2A	.	1f	2cc
1G	1B-	.	1b-
.	.	2e	.
=112	=112	=112	=112
0F	0c	0f	0a
!! Et iterum
*Ibass	*Itenor	*Icalto	*Icalto
!Bassus	!Tenor	!Altus 2	!Altus 1
*clefF4	*clefGv2	*clefG2	*clefG2
*k[b-]	*k[b-]	*k[b-]	*k[b-]
*F:ion	*F:ion	*F:ion	*F:ion
*M4/2	*M4/2	*M4/2	*M4/2
=113	=113	=113	=113
0C	0c	0g	0e
=114	=114	=114	=114
1.F	1.c	1.a	1.f
2C	2c	2g	2e
=115	=115	=115	=115
1C	1c	2g	2e
.	.	2cc	2c
1r	1r	2b-	2d
.	.	2a	2f
=116	=116	=116	=116
1c	2r	1g	1e
.	2c	.	.
2B-	2d	1r	1f
2A	2f	.	.
=117	=117	=117	=117
1G	2e	1r	2g
.	2d	.	2b-
1F	2.f	2r	[1a
.	.	2a	.
.	4f	.	.
=118	=118	=118	=118
2.F	2f	2.cc	1a]
.	1f	.	.
4G	.	4cc	.
1A	.	2cc	2r
.	2e	[2cc	2a
=119	=119	=119	=119
0r	0d	2cc]	2.f
.	.	2b-	.
.	.	.	4f
.	.	[1a	2f
.	.	.	[2f
=120	=120	=120	=120
1A	1c	1a]	2f]
.	.	.	2e
2.B-	1r	1f	[1d
4B-	.	.	.
=121	=121	=121	=121
2B-	1r	2r	1d]
1B-	.	2f	.
.	2r	2g	1c
2A	2c	2a	.
=122	=122	=122	=122
1G	2d	2b-	1r
.	2e	2b-	.
1F	[1f	[1a	2r
.	.	.	2c
=123	=123	=123	=123
2r	2f]	2a]	2d
2C	2e	2g	2e
2D	2d	2f	2f
2E	4c	4e	2g
.	4B-	4d	.
=124	=124	=124	=124
2.F	2A	2c	[0a
.	2d	2f	.
4G	.	.	.
1A	2d	1e	.
.	2c	.	.
=125	=125	=125	=125
1D	2.f	2r	0a]
.	.	1d	.
.	4e	.	.
1r	2d	.	.
.	2c	2e	.
=126	=126	=126	=126
2r	2d	1f	2r
1F	2c	.	1a
.	2r	2d	.
2G	2g	2d	2b-
=127	=127	=127	=127
1A	2e	1c	1cc
.	2e	.	.
2F	2f	1c	2a
2A	2c	.	2cc
=128	=128	=128	=128
2G	2d	1r	2b-
2F	2f	.	2a
[1c	1e	2r	4g
.	.	.	4f
.	.	[2g	4e
.	.	.	4d
=129	=129	=129	=129
1c]	4c	2g]	1e
.	4d	.	.
.	4e	2a	.
.	4f	.	.
1G	1g	1b-	[1d
=130	=130	=130	=130
1G	2r	2g	1d]
.	1d	2b-	.
2F	.	2a	1r
2E	2e	2g	.
=131	=131	=131	=131
1D	1f	1.a	0d
1D	2d	.	.
.	2f	4g	.
.	.	4f	.
=132	=132	=132	=132
0r	2e	2g	2c
.	2d	2f	2d
.	1c#	1e	1A
=133	=133	=133	=133
2r	2d	2f#	2a
1D	1d	1f#	1a
2D	2d	2f#	2a
=134	=134	=134	=134
2.G	2.B	2.g	2.d
4G	4B	4g	4d
2C	2c	2e	2g
[2F	[2c	[2f	[2a
=135	=135	=135	=135
2F]	2c]	2f]	2a]
2C	2c	2e	2g
2D	2.A	2d	2f
2A	.	2c	2e
.	4A	.	.
=136	=136	=136	=136
1D	2A	2.d	1.f
.	1a	.	.
.	.	4c	.
[1d	.	1B-	.
.	2g	.	4e
.	.	.	4d
=137	=137	=137	=137
2d]	2f	1A	1a
2c	2e	.	.
2B-	4d	1r	1r
.	4e	.	.
2A	[2f	.	.
=138	=138	=138	=138
1G	2f]	1r	1r
.	2e	.	.
[1F	[1f	2r	2r
.	.	2a	2cc
=139	=139	=139	=139
1F]	1f]	2a	2cc
.	.	1f	1a
1r	1r	.	.
.	.	2e	2g
=140	=140	=140	=140
0r	1r	2.a	2.f
.	.	4a	4f
.	2r	2g	2e
.	2F	2f	2a
=141	=141	=141	=141
0r	2G	2e	2g
.	2B-	2.d	2.f
.	2A	.	.
.	.	4c	4e
.	2A	[2d	4e
.	.	.	8d
.	.	.	8c
=142	=142	=142	=142
1r	1G	2d]	1d
.	.	2B	.
2r	2c	2c	2e
[2C	[2c	[2e	[2g
=143	=143	=143	=143
2C]	2c]	2e]	2g]
2C	2c	2e	2g
1C	1c	1e	1g
=144	=144	=144	=144
2G	2B-	2d	2g
2A	2A	2c	2f
2B-	2G	2d	2g
2c	2c	2e	2g
=145	=145	=145	=145
1F	2c	1f	2a
.	1c	.	2.a
1F	.	2r	.
.	.	.	4g
.	2c	[2a	[2f
=146	=146	=146	=146
1C	1c	2a]	2f]
.	.	2g	2e
2D	1A	2f	2d
2F	.	2f	2c
=147	=147	=147	=147
0BB-	0B-	0f	0d
=148	=148	=148	=148
2C	2G	2e	2c
2F	2F	2a	2c
2F	2c	2a	2f
2C	2c	2g	2e
=149	=149	=149	=149
2D	2A	2f	2d
2F	2A	2f	2c
1BB-	1B-	1d	1f
=150	=150	=150	=150
2F	2A	2c	1f
1F	1a	1cc	.
.	.	.	1r
2G	2g	2b-	.
=151	=151	=151	=151
2A	2f	2a	1r
2B-	2d	2f	.
2G	2e	2g	2r
2F	2f	2a	[2cc
=152	=152	=152	=152
1G	2e	1g	2cc]
.	1d	.	2b-
1A	.	1e	[1a
.	2c#	.	.
=153	=153	=153	=153
1D	1d	1f	2a]
.	.	.	2f
2E	2c	2e	2g
2F	2A	2c	2a
=154	=154	=154	=154
1BB-	2.B-	1d	2g
.	.	.	1f
.	4A	.	.
1C	1G	1c	.
.	.	.	2e
=155	=155	=155	=155
0F	0A	0c	0f
*-	*-	*-	*-
!! Et unam sanctam
**kern	**kern	**kern	**kern	**kern	**kern
*Ibass	*Ibass	*Itenor	*Icalto	*Icalto	*Icant
!Bassus 2	!Bassus 1	!Tenor	!Altus 2	!Altus 1	!Cantus
*clefF4	*clefF4	*clefGv2	*clefG2	*clefG2	*clefG2
*k[b-]	*k[b-]	*k[b-]	*k[b-]	*k[b-]	*k[b-]
*F:ion	*F:ion	*F:ion	*F:ion	*F:ion	*F:ion
*M4/2	*M4/2	*M4/2	*M4/2	*M4/2	*M4/2
=156	=156	=156	=156	=156	=156
0r	1F	1f	1a	0r	0r
.	2A	2f	2a	.	.
.	2B-	2f	2d	.	.
=157	=157	=157	=157	=157	=157
1r	1c	1e	1g	1r	1r
2r	2.F	2f	2a	2r	1ff
2F	.	2c	2f	2a	.
.	4E	.	.	.	.
=158	=158	=158	=158	=158	=158
2A	2D	2d	2.f	2a	2ff
2B-	2D	2d	.	2d	2ff
.	.	.	4d	.	.
1c	1C	2G	4e	1g	1ee
.	.	.	4d	.	.
.	.	[2c	4c	.	.
.	.	.	4B-	.	.
=159	=159	=159	=159	=159	=159
2.F	0r	2c]	4A	2a	2ff
.	.	.	4B-	.	.
.	.	1A	1c	2a	2cc
4E	.	.	.	.	.
2D	.	.	.	2f	2dd
2D	.	2F	2B	2f	2dd
=160	=160	=160	=160	=160	=160
0C	2r	2G	1c	2e	1g
.	2c	2g	.	2e	.
.	2.c	2g	1r	2e	2r
.	.	2e	.	2g	2cc
.	4B-	.	.	.	.
=161	=161	=161	=161	=161	=161
0r	2A	2f	0r	2a	2cc
.	2G	2g	.	2d	2b-
.	2A	2c	.	4f	2a
.	.	.	.	4e	.
.	2B-	2f	.	4d	2f
.	.	.	.	4c	.
=162	=162	=162	=162	=162	=162
1r	2G	2f	1r	2B-	2g
.	2G	2e	.	2B-	2g
2r	1F	1f	2r	2c	2.a
2F	.	.	2a	2c	.
.	.	.	.	.	4b-
=163	=163	=163	=163	=163	=163
2.F	0r	2r	2.a	2A	1cc
.	.	2A	.	2c	.
4E	.	.	4g	.	.
2D	.	2B-	2f	2d	1r
2C	.	2c	2e	2e	.
=164	=164	=164	=164	=164	=164
2D	0r	2A	2d	2f	0r
2E-	.	2G	2c	2g	.
2D	.	2A	2d	2f	.
2BB-	.	2B-	2d	2f	.
=165	=165	=165	=165	=165	=165
1C	2r	2G	1c	2.e	2r
.	2c	2A	.	.	2cc
.	.	.	.	4c	.
1r	2c	1G	2r	1g	2dd
.	2B-	.	2g	.	2dd
=166	=166	=166	=166	=166	=166
2r	1c	2r	2.g	1r	1ee
2c	.	2c	.	.	.
.	.	.	4g	.	.
2c	1G	2d	1g	2r	2dd
2B-	.	2d	.	2g	4gg
.	.	.	.	.	4ff
=167	=167	=167	=167	=167	=167
1c	2C	1e	2r	2.g	4ee
.	.	.	.	.	4dd
.	2C	.	1cc	.	4cc
.	.	.	.	4g	4b-
1r	1D	2r	.	1f	2a
.	.	[2f	2b-	.	2f
=168	=168	=168	=168	=168	=168
1c	1C	2f]	2a	2r	1cc
.	.	2e	2.g	1cc	.
2G	1r	1d	.	.	1dd
.	.	.	4f	.	.
2G	.	.	4d	2b-	.
.	.	.	4e	.	.
=169	=169	=169	=169	=169	=169
1A	1r	1c	2f	2a	1r
.	.	.	2e	1cc	.
1G	2r	[1d	1g	.	2r
.	[2G	.	.	4b-	[2g
.	.	.	.	4a	.
=170	=170	=170	=170	=170	=170
0r	2G]	1d]	1d	2b-	2g]
.	2F#	.	.	2a	2a
.	2G	1r	2d	2.g	2b
.	2C	.	2e-	.	2cc
.	.	.	.	4g	.
=171	=171	=171	=171	=171	=171
2r	1G	2r	1d	2b-	1dd
1G	.	2G	.	2b-	.
.	1D	1A	1d	1a	1dd
2F#	.	.	.	.	.
=172	=172	=172	=172	=172	=172
2G	2r	2B	2d	1g	1r
2C	1c	2c	2e-	.	.
1G	.	1d	2d	2.g	1dd
.	2B	.	2G	.	.
.	.	.	.	4f	.
=173	=173	=173	=173	=173	=173
2C	1c	2e	2g	4e	1cc
.	.	.	.	4d	.
1F	.	1a	2f	1c	.
.	1C	.	1g	.	1cc
2E	.	[2g	.	2c	.
=174	=174	=174	=174	=174	=174
1F	0r	2g]	1a	1A	[0cc
.	.	1f	.	.	.
[1C	.	.	[1g	1c	.
.	.	4e	.	.	.
.	.	4d	.	.	.
=175	=175	=175	=175	=175	=175
0C]	0c	2.e	1g]	2r	1cc]
.	.	.	.	1g	.
.	.	4d	.	.	.
.	.	4e	1r	.	2r
.	.	4f	.	.	.
.	.	2g	.	[2e	[2cc
=176	=176	=176	=176	=176	=176
0r	1A	1c	0r	2e]	2cc]
.	.	.	.	2.f	2a
.	1G	2r	.	.	1b-
.	.	.	.	8e	.
.	.	.	.	8d	.
.	.	2B-	.	2e	.
=177	=177	=177	=177	=177	=177
0F	1F	2d	2r	2.f	2.a
.	.	2.c	2.a	.	.
.	.	.	.	4g	4b-
.	2r	.	.	1a	1cc
.	.	4B-	4g	.	.
.	2F	4A	[2f	.	.
.	.	4G	.	.	.
=178	=178	=178	=178	=178	=178
1D	2F	2A	2f]	0r	2.ff
.	1B-	2B-	2d	.	.
.	.	.	.	.	4ff
1C	.	1c	1e-	.	2ee-
.	2A	.	.	.	2cc
=179	=179	=179	=179	=179	=179
1BB-	1B-	2.f	1d	2r	1dd
.	.	.	.	1b-	.
.	.	4f	.	.	.
2r	1F	2f	1r	.	1cc
2F	.	2c	.	2a	.
=180	=180	=180	=180	=180	=180
2F	2D	1d	2.f	2a	0r
1B-	2BB-	.	.	2b-	.
.	.	.	4f	.	.
.	1F	1c	2f	2cc	.
2A	.	.	2c	2f	.
=181	=181	=181	=181	=181	=181
1B-	1BB-	2r	1d	1.f	2.ff
.	.	1B-	.	.	.
.	.	.	.	.	4ff
1F	1r	.	1c	.	2ff
.	.	2A	.	2f	2cc
=182	=182	=182	=182	=182	=182
2D	0r	1B-	2r	4f	1dd
.	.	.	.	4e	.
2BB-	.	.	1B-	4d	.
.	.	.	.	4e	.
[1F	.	1c	.	4f	1cc
.	.	.	.	4g	.
.	.	.	2A	[2a	.
=183	=183	=183	=183	=183	=183
2F]	0r	2F	8A	2a]	2cc
.	.	.	8G	.	.
.	.	.	8A	.	.
.	.	.	8B-	.	.
2E	.	2G	1c	2g	2cc
1D	.	2A	.	1f	1dd
.	.	2F	2B	.	.
=184	=184	=184	=184	=184	=184
0C	1r	1G	1c	0e	1g
.	1c	1r	1g	.	1cc
=185	=185	=185	=185	=185	=185
0r	1B-	1f	1b-	0r	1dd
.	1c	1e	2g	.	2cc
.	.	.	[2c	.	2g
=186	=186	=186	=186	=186	=186
0r	1F	1f	2c]	0r	2a
.	.	.	2.d	.	2a
.	2G	2r	.	.	2b-
.	.	.	4e	.	.
.	2A	2c	[2f	.	4a
.	.	.	.	.	4g
=187	=187	=187	=187	=187	=187
0r	1B-	1d	2f]	0r	2f
.	.	.	2d	.	2g
.	1A	2e	1c	.	1a
.	.	[2f	.	.	.
=188	=188	=188	=188	=188	=188
1r	0G	2f]	1g	1r	2b
.	.	2e	.	.	1cc
1G	.	1d	2g	2r	.
.	.	.	2d	2g	2b
=189	=189	=189	=189	=189	=189
1F	0r	2r	1f	1a	1cc
.	.	2c	.	.	.
1G	.	1B	1d	1g	2r
.	.	.	.	.	2dd
=190	=190	=190	=190	=190	=190
1C	0r	1c	1e-	1g	1cc
2D	.	1F	1d	2f	2a
2D	.	.	.	2f	2b-
=191	=191	=191	=191	=191	=191
2E	0r	2G	1c	2e	2cc
2F	.	2A	.	2c	2cc
1BB-	.	1B-	2.d	2f	2b-
.	.	.	.	[2g	2dd
.	.	.	4d	.	.
=192	=192	=192	=192	=192	=192
0C	1r	2A	2e	2g]	1cc
.	.	2A	2f	1f	.
.	2r	1G	1g	.	1cc
.	2C	.	.	2e	.
=193	=193	=193	=193	=193	=193
2F	2.D	1F	2r	[0f	0a
2F	.	.	2d	.	.
.	4E	.	.	.	.
2A	2F	2r	2c	.	.
2A	2F	[2f	2c	.	.
=194	=194	=194	=194	=194	=194
2B-	2BB-	2f]	2d	0f]	2r
2BB-	1B-	2d	2B-	.	2.ff
1F	.	2c	1c	.	.
.	.	.	.	.	4ee
.	2A	[2f	.	.	2cc
=195	=195	=195	=195	=195	=195
0BB-	0B-	4f]	4B-	[0f	1dd
.	.	4e	4c	.	.
.	.	4d	4d	.	.
.	.	4c	4e	.	.
.	.	1d	2f	.	1b-
.	.	.	2g	.	.
=196	=196	=196	=196	=196	=196
0F	0A	0c	0a	0f]	0cc
==	==	==	==	==	==
*-	*-	*-	*-	*-	*-
!!!CDT: 1525/^1526/-1594/2/2
!!!OCY: Italia
!!!AGN: Mass (Paraphrase)
!!!AST: renaissance, vocal
!!!ASW: Antiphon
!!!PWK: Masses, Book 11
!!!RNB: Cadence finals: C
!!!YOR: Le Opere Complete, v. 28, p. 148
!!!YOO: Rome, Italy: Fratelli Scalera
!!!END: 1992//
!!!EED: John Miller
!!!YEC: Copyright 2000, John Miller
!!!YEN: United States of America
!!!YEM: Rights to all derivative electronic formats reserved.
!!!YEM: Refer to licensing agreement for further details.
!!!YEM: This file must be accompanied by the licensing agreement.
!!!YEM: A copy of the licensing agreement may be found at http://www.music-cog.ohio-state.edu/HumdrumDatabases/Palestrina/license.txt
!!!EMD: converted to Humdrum by Bret Aarden
